;FLAVOR:Marlin
;TIME:2210
;Filament used: 1.27466m
;Layer height: 0.2
;MINX:22.7
;MINY:22.7
;MINZ:0.2
;MAXX:212.3
;MAXY:212.3
;MAXZ:0.8
;Generated with Cura_SteamEngine 4.5.0
M140 S60
M105
M190 S60
M104 S200
M105
M109 S200
M82 ;absolute extrusion mode
;G28 ; Home all axes I don't do this cause I added it to the printer itself
;G29 ; I use this for autobed leveling but again it's part of my printer code
G92 E0 ; Reset Extruder
G1 Z2.0 F3000 ; Move Z Axis up little to prevent scratching of Heat Bed
G1 X0.1 Y20 Z0.3 F5000.0 ; Move to start position
G1 X0.1 Y200.0 Z0.3 F1500.0 E15 ; Draw the first line
G1 X0.4 Y200.0 Z0.3 F5000.0 ; Move to side a little
G1 X0.4 Y50 Z0.3 F1500.0 E30 ; Draw the second line
G1 X0.4 Y0 F5000; test
G92 E0 ; Reset Extruder
G1 Z4.0 F3000 ; Move Z Axis up little to prevent scratching of Heat Bed
; End of custom start GCode
; Cheers man
G92 E0
G92 E0
G1 F2700 E-5
;LAYER_COUNT:4
;LAYER:0
M107
;MESH:skew_test.STL
G0 F6000 X43.606 Y190.899 Z0.2
;TYPE:WALL-INNER
G1 F2700 E0
G1 F1200 X43.606 Y44.101 E4.88252
G1 X24.541 Y25.035 E5.7793
G1 X23.8 Y25.341 E5.80597
G1 X23.8 Y209.659 E11.93641
G1 X24.541 Y209.965 E11.96307
G1 X43.606 Y190.899 E12.85986
G0 F6000 X43.206 Y190.733
;TYPE:WALL-OUTER
G1 F1200 X43.206 Y44.267 E17.73134
G1 X24.447 Y25.507 E18.61373
G1 X24.2 Y25.609 E18.62261
G1 X24.2 Y209.391 E24.73523
G1 X24.447 Y209.493 E24.74412
G1 X43.206 Y190.733 E25.62651
G0 F6000 X43.612 Y190.901
G0 X45.093 Y190.816
G0 X45.848 Y190.694
;TYPE:WALL-INNER
G1 F1200 X189.152 Y190.694 E30.39282
G1 X189.458 Y189.953 E30.41948
G1 X131.979 Y132.473 E33.12314
G1 X128.823 Y134.917 E33.2559
G1 X125.812 Y136.537 E33.36962
G1 X122.578 Y137.642 E33.48329
G1 X119.207 Y138.203 E33.59696
G1 X115.793 Y138.203 E33.71051
G1 X112.422 Y137.642 E33.82417
G1 X109.188 Y136.537 E33.93784
G1 X106.177 Y134.917 E34.05156
G1 X103.021 Y132.473 E34.18432
G1 X71.713 Y163.782 E35.65698
G1 X45.542 Y189.953 E36.88798
G1 X45.848 Y190.694 E36.91464
G0 F6000 X46.116 Y190.294
;TYPE:WALL-OUTER
G1 F1200 X188.884 Y190.294 E41.66313
G1 X188.986 Y190.047 E41.67202
G1 X131.945 Y133.005 E44.35507
G1 X129.041 Y135.254 E44.47724
G1 X125.971 Y136.906 E44.59319
G1 X122.676 Y138.032 E44.70901
G1 X119.243 Y138.603 E44.82476
G1 X115.757 Y138.603 E44.9407
G1 X112.324 Y138.032 E45.05645
G1 X109.029 Y136.906 E45.17227
G1 X105.959 Y135.254 E45.28822
G1 X103.055 Y133.005 E45.41039
G1 X71.996 Y164.065 E46.87133
G1 X46.014 Y190.047 E48.09344
G1 X46.116 Y190.294 E48.10233
G0 F6000 X46.116 Y190.594
G0 X46.028 Y190.557
G0 X45.047 Y189.458
;TYPE:WALL-INNER
G1 F1200 X75.676 Y158.828 E49.54305
G1 X102.527 Y131.979 E50.80599
G1 X100.083 Y128.823 E50.93876
G1 X98.463 Y125.812 E51.05248
G1 X97.358 Y122.578 E51.16615
G1 X96.797 Y119.207 E51.27981
G1 X96.797 Y115.793 E51.39336
G1 X97.358 Y112.422 E51.50702
G1 X98.463 Y109.188 E51.62069
G1 X100.083 Y106.177 E51.73441
G1 X102.526 Y103.022 E51.86713
G1 X68.493 Y68.988 E53.46796
G1 X45.047 Y45.542 E54.57079
G1 X44.306 Y45.848 E54.59745
G1 X44.306 Y189.152 E59.36376
G1 X45.047 Y189.458 E59.39043
G0 F6000 X44.953 Y188.986
;TYPE:WALL-OUTER
G1 F1200 X75.393 Y158.545 E60.82225
G1 X101.995 Y131.945 E62.07348
G1 X99.746 Y129.041 E62.19565
G1 X98.094 Y125.971 E62.3116
G1 X96.968 Y122.676 E62.42742
G1 X96.397 Y119.243 E62.54317
G1 X96.397 Y115.757 E62.65911
G1 X96.968 Y112.324 E62.77486
G1 X98.094 Y109.029 E62.89068
G1 X99.746 Y105.959 E63.00663
G1 X101.994 Y103.056 E63.12875
G1 X68.21 Y69.271 E64.71787
G1 X44.953 Y46.014 E65.81181
G1 X44.706 Y46.116 E65.82069
G1 X44.706 Y188.884 E70.56918
G1 X44.953 Y188.986 E70.57807
G1 F2700 E65.57807
G0 F6000 X45.164 Y189.198
G0 X45.007 Y189.261
G0 X44.473 Y189.04
G0 X44.101 Y43.606
;TYPE:WALL-INNER
G1 F2700 E70.57807
G1 F1200 X190.899 Y43.606 E75.46059
G1 X209.965 Y24.541 E76.35737
G1 X209.659 Y23.8 E76.38403
G1 X25.341 Y23.8 E82.51448
G1 X25.035 Y24.542 E82.54117
G1 X25.39 Y24.895 E82.55782
G1 X44.101 Y43.606 E83.43793
G0 F6000 X44.267 Y43.206
;TYPE:WALL-OUTER
G1 F1200 X190.733 Y43.206 E88.30941
G1 X209.493 Y24.447 E89.1918
G1 X209.391 Y24.2 E89.20069
G1 X25.609 Y24.2 E95.3133
G1 X25.507 Y24.447 E95.32219
G1 X25.673 Y24.612 E95.32997
G1 X44.267 Y43.206 E96.20458
G0 F6000 X44.099 Y43.612
G1 F2700 E91.20458
G0 F6000 X45.258 Y44.194
G0 X45.17 Y44.432
G0 X103.021 Y102.527
;TYPE:WALL-INNER
G1 F2700 E96.20458
G1 F1200 X106.177 Y100.083 E96.33734
G1 X109.188 Y98.463 E96.45106
G1 X112.422 Y97.358 E96.56473
G1 X115.793 Y96.797 E96.67839
G1 X119.207 Y96.797 E96.79194
G1 X122.578 Y97.358 E96.90561
G1 X125.812 Y98.463 E97.01928
G1 X128.823 Y100.083 E97.133
G1 X131.979 Y102.527 E97.26576
G1 X164.809 Y69.695 E98.81003
G1 X189.458 Y45.047 E99.96942
G1 X189.152 Y44.306 E99.99608
G1 X45.848 Y44.306 E104.76239
G1 X45.542 Y45.047 E104.78906
G1 X76.172 Y75.676 E106.22978
G1 X103.021 Y102.527 E107.49272
G0 F6000 X103.055 Y101.995
;TYPE:WALL-OUTER
G1 F1200 X105.959 Y99.746 E107.61488
G1 X109.029 Y98.094 E107.73084
G1 X112.324 Y96.968 E107.84665
G1 X115.757 Y96.397 E107.9624
G1 X119.243 Y96.397 E108.07835
G1 X122.676 Y96.968 E108.1941
G1 X125.971 Y98.094 E108.30991
G1 X129.041 Y99.746 E108.42587
G1 X131.945 Y101.995 E108.54803
G1 X164.526 Y69.412 E110.08059
G1 X188.986 Y44.953 E111.23109
G1 X188.884 Y44.706 E111.23998
G1 X46.116 Y44.706 E115.98846
G1 X46.014 Y44.953 E115.99735
G1 X76.455 Y75.393 E117.42918
G1 X103.055 Y101.995 E118.68041
G0 F6000 X103.238 Y102.232
G0 X103.718 Y102.952
G0 X117.36 Y116.865
;TYPE:WALL-INNER
G1 F1200 X117.5 Y117.005 E118.68699
G1 X117.64 Y116.865 E118.69124
G1 X131.33 Y103.173 E119.33522
G1 X131.49 Y103.013 E119.34274
G1 X131.31 Y102.875 E119.34745
G1 X128.384 Y100.629 E119.47014
G1 X125.489 Y99.081 E119.57932
G1 X122.381 Y98.025 E119.6885
G1 X119.141 Y97.49 E119.79772
G1 X115.858 Y97.49 E119.90692
G1 X112.619 Y98.025 E120.01611
G1 X109.511 Y99.081 E120.12528
G1 X106.616 Y100.629 E120.23447
G1 X103.689 Y102.876 E120.3572
G1 X103.509 Y103.014 E120.36475
G1 X103.669 Y103.174 E120.36944
G1 X117.36 Y116.865 E121.01342
G0 F6000 X117.5 Y116.439
;TYPE:WALL-OUTER
G1 F1200 X130.885 Y103.053 E121.64304
G1 X128.166 Y100.966 E121.75704
G1 X125.329 Y99.449 E121.86404
G1 X122.283 Y98.414 E121.97104
G1 X119.108 Y97.89 E122.07807
G1 X115.891 Y97.89 E122.18507
G1 X112.717 Y98.414 E122.29206
G1 X109.671 Y99.449 E122.39906
G1 X106.834 Y100.966 E122.50607
G1 X104.114 Y103.054 E122.62012
G1 X117.5 Y116.439 E123.24973
G0 F6000 X117.288 Y116.65
G0 X116.762 Y117.5
G0 X103.031 Y131.227
G0 X102.875 Y131.31
;TYPE:WALL-INNER
G1 F1200 X103.013 Y131.49 E123.25727
G1 X103.173 Y131.33 E123.26197
G1 X116.865 Y117.64 E123.90595
G1 X117.005 Y117.5 E123.91254
G1 X116.865 Y117.36 E123.91678
G1 X103.173 Y103.67 E124.56076
G1 X103.013 Y103.51 E124.56829
G1 X102.875 Y103.69 E124.573
G1 X102.393 Y104.318 E124.59933
G1 X100.629 Y106.616 E124.69568
G1 X99.081 Y109.511 E124.80487
G1 X98.025 Y112.619 E124.91405
G1 X97.49 Y115.859 E125.02327
G1 X97.49 Y119.141 E125.13243
G1 X98.025 Y122.381 E125.24165
G1 X99.081 Y125.489 E125.35083
G1 X100.629 Y128.384 E125.46001
G1 X102.875 Y131.31 E125.5827
G0 F6000 X103.053 Y130.885
;TYPE:WALL-OUTER
G1 F1200 X116.439 Y117.5 E126.21231
G1 X114.92 Y115.982 E126.28374
G1 X103.053 Y104.115 E126.84192
G1 X102.71 Y104.562 E126.86066
G1 X100.966 Y106.834 E126.95593
G1 X99.449 Y109.671 E127.06293
G1 X98.414 Y112.717 E127.16993
G1 X97.89 Y115.892 E127.27696
G1 X97.89 Y119.108 E127.38392
G1 X98.414 Y122.283 E127.49095
G1 X99.449 Y125.329 E127.59795
G1 X100.966 Y128.166 E127.70495
G1 X103.053 Y130.885 E127.81896
G0 F6000 X102.815 Y131.066
G0 X103.772 Y131.968
G0 X106.704 Y134.236
G0 X109.576 Y135.771
G0 X112.35 Y136.714
G0 X115.859 Y137.51
;TYPE:WALL-INNER
G1 F1200 X119.141 Y137.51 E127.92812
G1 X122.381 Y136.975 E128.03734
G1 X125.489 Y135.919 E128.14651
G1 X128.384 Y134.371 E128.2557
G1 X131.311 Y132.124 E128.37843
G1 X131.491 Y131.986 E128.38598
G1 X131.331 Y131.826 E128.39067
G1 X117.5 Y117.995 E129.04124
G1 X103.669 Y131.826 E129.69181
G1 X103.509 Y131.986 E129.69934
G1 X103.689 Y132.124 E129.70404
G1 X106.616 Y134.371 E129.82677
G1 X109.511 Y135.919 E129.93596
G1 X112.619 Y136.975 E130.04514
G1 X115.859 Y137.51 E130.15436
G0 F6000 X115.892 Y137.11
;TYPE:WALL-OUTER
G1 F1200 X119.108 Y137.11 E130.26132
G1 X122.283 Y136.586 E130.36835
G1 X125.329 Y135.551 E130.47535
G1 X128.166 Y134.034 E130.58236
G1 X130.886 Y131.946 E130.6964
G1 X117.5 Y118.561 E131.32602
G1 X104.114 Y131.946 E131.95563
G1 X106.834 Y134.034 E132.06968
G1 X109.671 Y135.551 E132.17668
G1 X112.717 Y136.586 E132.28368
G1 X115.892 Y137.11 E132.39071
G0 F6000 X115.857 Y137.548
G0 X119.127 Y137.349
G0 X122.341 Y136.819
G0 X125.424 Y135.771
G0 X128.296 Y134.236
G0 X132.124 Y131.311
;TYPE:WALL-INNER
G1 F1200 X134.371 Y128.384 E132.51344
G1 X135.919 Y125.489 E132.62263
G1 X136.975 Y122.381 E132.73181
G1 X137.51 Y119.141 E132.84103
G1 X137.51 Y115.859 E132.95019
G1 X136.975 Y112.619 E133.05941
G1 X135.919 Y109.511 E133.16859
G1 X134.371 Y106.616 E133.27778
G1 X132.124 Y103.689 E133.40051
G1 X131.986 Y103.509 E133.40805
G1 X131.826 Y103.669 E133.41275
G1 X117.995 Y117.5 E134.06331
G1 X131.826 Y131.331 E134.71388
G1 X131.986 Y131.491 E134.72141
G1 X132.124 Y131.311 E134.72611
G0 F6000 X131.946 Y130.886
;TYPE:WALL-OUTER
G1 F1200 X134.034 Y128.166 E134.84016
G1 X135.551 Y125.329 E134.94717
G1 X136.586 Y122.283 E135.05417
G1 X137.11 Y119.108 E135.16119
G1 X137.11 Y115.892 E135.26816
G1 X136.586 Y112.717 E135.37519
G1 X135.551 Y109.671 E135.48219
G1 X134.034 Y106.834 E135.58919
G1 X131.946 Y104.114 E135.70324
G1 X130.408 Y105.653 E135.77561
G1 X118.561 Y117.5 E136.33285
G1 X131.946 Y130.886 E136.96246
G1 F2700 E131.96246
G0 F6000 X131.734 Y131.097
G0 X189.953 Y189.458
;TYPE:WALL-INNER
G1 F2700 E136.96246
G1 F1200 X190.694 Y189.152 E136.98913
G1 X190.694 Y45.848 E141.75544
G1 X189.953 Y45.542 E141.7821
G1 X186.945 Y48.551 E141.92362
G1 X132.473 Y103.021 E144.48576
G1 X134.917 Y106.177 E144.61853
G1 X136.537 Y109.188 E144.73225
G1 X137.642 Y112.422 E144.84592
G1 X138.203 Y115.793 E144.95958
G1 X138.203 Y119.207 E145.07313
G1 X137.642 Y122.578 E145.18679
G1 X136.537 Y125.812 E145.30046
G1 X134.917 Y128.823 E145.41418
G1 X132.473 Y131.979 E145.54694
G1 X183.688 Y183.192 E147.95589
G1 X189.953 Y189.458 E148.2506
G0 F6000 X190.047 Y188.986
;TYPE:WALL-OUTER
G1 F1200 X190.294 Y188.884 E148.25949
G1 X190.294 Y46.116 E153.00798
G1 X190.047 Y46.014 E153.01686
G1 X187.228 Y48.834 E153.14948
G1 X133.005 Y103.055 E155.69992
G1 X135.254 Y105.959 E155.82209
G1 X136.906 Y109.029 E155.93804
G1 X138.032 Y112.324 E156.05385
G1 X138.603 Y115.757 E156.16961
G1 X138.603 Y119.243 E156.28555
G1 X138.032 Y122.676 E156.4013
G1 X136.906 Y125.971 E156.51712
G1 X135.254 Y129.041 E156.63307
G1 X133.005 Y131.945 E156.75523
G1 X183.971 Y182.909 E159.15247
G1 X190.047 Y188.986 E159.43829
G0 F6000 X189.835 Y189.197
G0 X190.806 Y189.742
G0 X191.394 Y190.899
;TYPE:WALL-INNER
G1 F1200 X210.459 Y209.965 E160.33507
G1 X211.2 Y209.659 E160.36174
G1 X211.2 Y25.341 E166.49218
G1 X210.459 Y25.035 E166.51885
G1 X208.259 Y27.236 E166.62235
G1 X191.394 Y44.101 E167.41563
G1 X191.394 Y190.899 E172.29815
G0 F6000 X191.794 Y190.733
;TYPE:WALL-OUTER
G1 F1200 X210.553 Y209.493 E173.18054
G1 X210.8 Y209.391 E173.18943
G1 X210.8 Y25.609 E179.30204
G1 X210.553 Y25.507 E179.31093
G1 X208.542 Y27.519 E179.40554
G1 X191.794 Y44.267 E180.19332
G1 X191.794 Y190.733 E185.0648
G0 F6000 X191.388 Y190.901
G0 X190.899 Y191.394
;TYPE:WALL-INNER
G1 F1200 X44.101 Y191.394 E189.94732
G1 X25.035 Y210.459 E190.8441
G1 X25.341 Y211.2 E190.87077
G1 X209.659 Y211.2 E197.00121
G1 X209.965 Y210.459 E197.02787
G1 X190.899 Y191.394 E197.92465
G0 F6000 X190.733 Y191.794
;TYPE:WALL-OUTER
G1 F1200 X44.267 Y191.794 E202.79613
G1 X25.507 Y210.553 E203.67852
G1 X25.609 Y210.8 E203.68741
G1 X209.391 Y210.8 E209.80003
G1 X209.493 Y210.553 E209.80891
G1 X190.733 Y191.794 E210.6913
G0 F6000 X190.901 Y191.388
G1 F2700 E205.6913
G0 F6000 X191.558 Y44.169
G0 X210.416 Y24.584
;TYPE:WALL-INNER
G1 F2700 E210.6913
G1 F1200 X210.081 Y23.775 E210.72043
G1 X209.968 Y23.5 E210.73031
G1 X210.265 Y23.5 E210.73609
G1 X210.266 Y23.5 E210.73613
G1 X211.5 Y23.5 E210.77717
G1 X211.5 Y24.734 E210.81821
G1 X211.5 Y24.735 E210.81825
G1 X211.5 Y25.032 E210.82812
G1 X211.225 Y24.919 E210.83391
G1 X210.416 Y24.584 E210.86303
G0 F6000 X210.249 Y23.688
G0 X211.9 Y23.1
G1 F1200 X211.9 Y211.9 E217.14255
G1 X23.1 Y211.9 E223.42206
G1 X23.1 Y23.1 E229.70157
G1 X211.9 Y23.1 E235.98109
G1 F2700 E230.98109
G0 F6000 X25.032 Y23.5
G1 F2700 E235.98109
G1 F1200 X24.919 Y23.775 E235.99098
G1 X24.585 Y24.584 E236.02009
G1 X23.775 Y24.919 E236.04924
G1 X23.5 Y25.032 E236.05913
G1 X23.5 Y24.735 E236.06491
G1 X23.5 Y24.734 E236.06494
G1 X23.5 Y23.5 E236.10598
G1 X24.734 Y23.5 E236.14703
G1 X24.735 Y23.5 E236.14706
G1 X25.032 Y23.5 E236.15284
G1 F2700 E231.15284
G0 F6000 X23.967 Y25.453
G0 X23.967 Y209.547
G0 X24.584 Y210.416
G1 F2700 E236.15284
G1 F1200 X24.919 Y211.225 E236.18196
G1 X25.032 Y211.5 E236.19185
G1 X24.735 Y211.5 E236.19763
G1 X24.734 Y211.5 E236.19766
G1 X23.5 Y211.5 E236.23871
G1 X23.5 Y210.266 E236.27975
G1 X23.5 Y210.265 E236.27978
G1 X23.5 Y209.968 E236.28966
G1 X23.775 Y210.081 E236.29545
G1 X24.584 Y210.416 E236.32457
G1 F2700 E231.32457
G0 F6000 X25.453 Y211.033
G0 X209.547 Y211.033
G0 X211.5 Y209.968
G1 F2700 E236.32457
G1 F1200 X211.5 Y210.265 E236.33445
G1 X211.5 Y210.266 E236.33448
G1 X211.5 Y211.5 E236.37552
G1 X210.266 Y211.5 E236.41657
G1 X210.265 Y211.5 E236.4166
G1 X209.968 Y211.5 E236.42648
G1 X210.081 Y211.225 E236.43226
G1 X210.416 Y210.416 E236.46139
G1 X211.225 Y210.081 E236.49051
G1 X211.5 Y209.968 E236.49629
G1 F2700 E231.49629
G0 F6000 X209.547 Y211.033
G0 X22.97 Y212.03
G0 X22.7 Y212.3
;TYPE:WALL-OUTER
G1 F2700 E236.49629
G1 F1200 X22.7 Y22.7 E242.80242
G1 X212.3 Y22.7 E249.10854
G1 X212.3 Y212.3 E255.41466
G1 X22.7 Y212.3 E261.72078
G1 F2700 E256.72078
G0 F6000 X22.97 Y212.03
G0 X23.688 Y210.249
G0 X23.903 Y210.333
G0 X44.006 Y190.994
;TYPE:WALL-INNER
G1 F2700 E261.72078
G1 F1200 X44.006 Y189.759 E261.76186
G1 X44.006 Y189.758 E261.76189
G1 X44.006 Y189.461 E261.77177
G1 X44.281 Y189.574 E261.77755
G1 X45.091 Y189.909 E261.80671
G1 X45.426 Y190.719 E261.83586
G1 X45.539 Y190.994 E261.84575
G1 X45.242 Y190.994 E261.85153
G1 X45.241 Y190.994 E261.85156
G1 X44.006 Y190.994 E261.89264
G1 F2700 E256.89264
G0 F6000 X189.461 Y190.994
G1 F2700 E261.89264
G1 F1200 X189.574 Y190.719 E261.90253
G1 X189.909 Y189.909 E261.93168
G1 X190.719 Y189.574 E261.96083
G1 X190.994 Y189.461 E261.97072
G1 X190.994 Y189.758 E261.9765
G1 X190.994 Y189.759 E261.97654
G1 X190.994 Y190.994 E262.01761
G1 X189.759 Y190.994 E262.05869
G1 X189.758 Y190.994 E262.05872
G1 X189.461 Y190.994 E262.0645
G1 F2700 E257.0645
G0 F6000 X190.527 Y189.04
G0 X190.527 Y45.96
G0 X189.909 Y45.091
G1 F2700 E262.0645
G1 F1200 X189.574 Y44.281 E262.09365
G1 X189.461 Y44.006 E262.10354
G1 X189.758 Y44.006 E262.10932
G1 X189.759 Y44.006 E262.10936
G1 X190.994 Y44.006 E262.15043
G1 X190.994 Y45.241 E262.19151
G1 X190.994 Y45.242 E262.19154
G1 X190.994 Y45.539 E262.20142
G1 X190.719 Y45.426 E262.2072
G1 X189.909 Y45.091 E262.23636
G1 F2700 E257.23636
G0 F6000 X189.04 Y44.473
G0 X45.96 Y44.473
G0 X44.006 Y45.539
G1 F2700 E262.23636
G1 F1200 X44.006 Y45.242 E262.24624
G1 X44.006 Y45.241 E262.24627
G1 X44.006 Y44.006 E262.28735
G1 X45.241 Y44.006 E262.32842
G1 X45.242 Y44.006 E262.32846
G1 X45.539 Y44.006 E262.33833
G1 X45.426 Y44.281 E262.34412
G1 X45.091 Y45.091 E262.37327
G1 X44.281 Y45.426 E262.40243
G1 X44.006 Y45.539 E262.40821
