; G-Code generated by Simplify3D(R) Version 4.1.1
; Jun 21, 2019 at 10:56:21 PM
; Settings Summary
;   processName,Process1
;   applyToModels,Lithophane_Thickness_Calibration_Tile
;   profileName,Creality Ender3 GadunkyLithophaneV8 (modified)
;   profileVersion,2019-06-21 10:27:04
;   baseProfile,Default
;   printMaterial,PLA
;   printQuality,Medium
;   printExtruders,
;   extruderName,Extruder 1
;   extruderToolheadNumber,0
;   extruderDiameter,0.4
;   extruderAutoWidth,0
;   extruderWidth,0.4
;   extrusionMultiplier,0.98
;   extruderUseRetract,1
;   extruderRetractionDistance,6
;   extruderExtraRestartDistance,-0.1
;   extruderRetractionZLift,0
;   extruderRetractionSpeed,4200
;   extruderUseCoasting,1
;   extruderCoastingDistance,0.1
;   extruderUseWipe,1
;   extruderWipeDistance,3
;   primaryExtruder,0
;   layerHeight,0.2
;   topSolidLayers,6
;   bottomSolidLayers,5
;   perimeterOutlines,6
;   printPerimetersInsideOut,1
;   startPointOption,2
;   startPointOriginX,0
;   startPointOriginY,0
;   sequentialIslands,0
;   spiralVaseMode,0
;   firstLayerHeightPercentage,100
;   firstLayerWidthPercentage,150
;   firstLayerUnderspeed,0.3
;   useRaft,0
;   raftExtruder,0
;   raftTopLayers,3
;   raftBaseLayers,2
;   raftOffset,3
;   raftSeparationDistance,0.14
;   raftTopInfill,100
;   aboveRaftSpeedMultiplier,0.3
;   useSkirt,1
;   skirtExtruder,0
;   skirtLayers,1
;   skirtOutlines,15
;   skirtOffset,0
;   usePrimePillar,0
;   primePillarExtruder,999
;   primePillarWidth,12
;   primePillarLocation,7
;   primePillarSpeedMultiplier,1
;   useOozeShield,0
;   oozeShieldExtruder,999
;   oozeShieldOffset,2
;   oozeShieldOutlines,1
;   oozeShieldSidewallShape,1
;   oozeShieldSidewallAngle,30
;   oozeShieldSpeedMultiplier,1
;   infillExtruder,0
;   internalInfillPattern,Rectilinear
;   externalInfillPattern,Rectilinear
;   infillPercentage,99
;   outlineOverlapPercentage,15
;   infillExtrusionWidthPercentage,120
;   minInfillLength,3
;   infillLayerInterval,1
;   internalInfillAngles,45,-45
;   overlapInternalInfillAngles,0
;   externalInfillAngles,45,-45
;   generateSupport,0
;   supportExtruder,0
;   supportInfillPercentage,30
;   supportExtraInflation,0
;   supportBaseLayers,1
;   denseSupportExtruder,0
;   denseSupportLayers,1
;   denseSupportInfillPercentage,70
;   supportLayerInterval,1
;   supportHorizontalPartOffset,0.2
;   supportUpperSeparationLayers,1
;   supportLowerSeparationLayers,1
;   supportType,0
;   supportGridSpacing,4
;   maxOverhangAngle,60
;   supportAngles,0
;   temperatureName,Extruder 1 Temperature,Heated Bed
;   temperatureNumber,0,0
;   temperatureSetpointCount,2,3
;   temperatureSetpointLayers,1,5,1,10,30
;   temperatureSetpointTemperatures,210,205,65,55,60
;   temperatureStabilizeAtStartup,1,1
;   temperatureHeatedBed,0,1
;   fanLayers,1,3,4,5
;   fanSpeeds,0,30,40,60
;   blipFanToFullPower,1
;   adjustSpeedForCooling,1
;   minSpeedLayerTime,12
;   minCoolingSpeedSlowdown,25
;   increaseFanForCooling,1
;   minFanLayerTime,10
;   maxCoolingFanSpeed,100
;   increaseFanForBridging,1
;   bridgingFanSpeed,60
;   use5D,1
;   relativeEdistances,0
;   allowEaxisZeroing,1
;   independentExtruderAxes,0
;   includeM10123,0
;   stickySupport,1
;   applyToolheadOffsets,0
;   gcodeXoffset,0
;   gcodeYoffset,0
;   gcodeZoffset,0
;   overrideMachineDefinition,1
;   machineTypeOverride,0
;   strokeXoverride,220
;   strokeYoverride,220
;   strokeZoverride,250
;   originOffsetXoverride,0
;   originOffsetYoverride,0
;   originOffsetZoverride,0
;   homeXdirOverride,-1
;   homeYdirOverride,-1
;   homeZdirOverride,-1
;   flipXoverride,1
;   flipYoverride,-1
;   flipZoverride,1
;   toolheadOffsets,0,0|0,0|0,0|0,0|0,0|0,0
;   overrideFirmwareConfiguration,1
;   firmwareTypeOverride,RepRap (Marlin/Repetier/Sprinter)
;   GPXconfigOverride,r2
;   baudRateOverride,115200
;   overridePrinterModels,0
;   printerModelsOverride
;   startingGcode,G0 X0 Y0 F9000 ; Go to front,G0 Z0.15 ; Drop to bed,G92 E0 ; zero the extruded length,G1 X40 E25 F500 ; Extrude 25mm of filament in a 4cm line,G92 E0 ; zero the extruded length,G1 E-1 F500 ; Retract a little,G92 E0;reset extruder length,G1 X80 F4000 ; Quickly wipe away from the filament line,G1 Z0.3 ; Raise and begin printing.,
;   layerChangeGcode,
;   retractionGcode,
;   toolChangeGcode,
;   endingGcode,G1 E-3 F3600; retract 3mm,G28 X; home x axis,M104 S0 ; turn off extruder,M140 S0 ; turn off bed,M84 ; disable motors
;   exportFileFormat,gcode
;   celebration,0
;   celebrationSong,Star Wars
;   postProcessing,
;   defaultSpeed,2400
;   outlineUnderspeed,0.75
;   solidInfillUnderspeed,0.75
;   supportUnderspeed,0.75
;   rapidXYspeed,5400
;   rapidZspeed,1002
;   minBridgingArea,20
;   bridgingExtraInflation,0
;   bridgingExtrusionMultiplier,0.9
;   bridgingSpeedMultiplier,0.95
;   useFixedBridgingAngle,0
;   fixedBridgingAngle,0
;   applyBridgingToPerimeters,0
;   filamentDiameters,1.75|1.75|1.75|1.75|1.75|1.75
;   filamentPricesPerKg,20|30|30|30|30|30
;   filamentDensities,1.25|1.25|1.25|1.25|1.25|1.25
;   useMinPrintHeight,0
;   minPrintHeight,200
;   useMaxPrintHeight,0
;   maxPrintHeight,272.31
;   useDiaphragm,0
;   diaphragmLayerInterval,20
;   robustSlicing,1
;   mergeAllIntoSolid,0
;   onlyRetractWhenCrossingOutline,0
;   retractBetweenLayers,0
;   useRetractionMinTravel,1
;   retractionMinTravel,15
;   retractWhileWiping,1
;   onlyWipeOutlines,1
;   avoidCrossingOutline,1
;   maxMovementDetourFactor,5
;   toolChangeRetractionDistance,12
;   toolChangeExtraRestartDistance,-0.5
;   toolChangeRetractionSpeed,600
;   externalThinWallType,0
;   internalThinWallType,1
;   thinWallAllowedOverlapPercentage,15
;   singleExtrusionMinLength,1
;   singleExtrusionMinPrintingWidthPercentage,50
;   singleExtrusionMaxPrintingWidthPercentage,200
;   singleExtrusionEndpointExtension,0.2
;   horizontalSizeCompensation,0
G90
M82
M106 S0
M140 S65
M190 S65
M104 S210 T0
M109 S210 T0
G0 X0 Y0 F9000 ; Go to front
G0 Z0.15 ; Drop to bed
G92 E0 ; zero the extruded length
G1 X40 E25 F500 ; Extrude 25mm of filament in a 4cm line
G92 E0 ; zero the extruded length
G1 E-1 F500 ; Retract a little
G92 E0;reset extruder length
G1 X80 F4000 ; Quickly wipe away from the filament line
G1 Z0.3 ; Raise and begin printing.
; process Process1
; layer 1, Z = 0.200
T0
G92 E0.0000
G1 E-6.0000 F4200
; feature skirt
; tool H0.200 W0.600
G1 Z0.200 F1002
G1 X91.300 Y92.896 F5400
G1 E-0.1000 F4200
G92 E0.0000
G1 X96.396 Y87.800 E0.3524 F720
G1 X113.604 Y87.800 E1.1937
G1 X114.604 Y88.800 E1.2628
G1 X123.604 Y88.800 E1.7029
G1 X124.604 Y89.800 E1.7720
G1 X133.604 Y89.800 E2.2120
G1 X134.104 Y90.300 E2.2466
G1 X143.604 Y90.300 E2.7111
G1 X148.700 Y95.396 E3.0635
G1 X148.700 Y107.104 E3.6359
G1 X143.604 Y112.200 E3.9883
G1 X96.396 Y112.200 E6.2963
G1 X91.300 Y107.104 E6.6487
G1 X91.300 Y92.896 E7.3434
G1 X91.900 Y93.145 F5400
G92 E0.0000
G1 X96.645 Y88.400 E0.3281 F720
G1 X113.355 Y88.400 E1.1451
G1 X114.355 Y89.400 E1.2142
G1 X123.355 Y89.400 E1.6543
G1 X124.355 Y90.400 E1.7234
G1 X133.355 Y90.400 E2.1634
G1 X133.855 Y90.900 E2.1980
G1 X143.355 Y90.900 E2.6625
G1 X148.100 Y95.645 E2.9906
G1 X148.100 Y106.855 E3.5387
G1 X143.355 Y111.600 E3.8667
G1 X96.645 Y111.600 E6.1505
G1 X91.900 Y106.855 E6.4786
G1 X91.900 Y93.145 E7.1489
G1 X92.500 Y93.393 F5400
G92 E0.0000
G1 X96.893 Y89.000 E0.3038 F720
G1 X113.107 Y89.000 E1.0965
G1 X114.107 Y90.000 E1.1656
G1 X123.107 Y90.000 E1.6057
G1 X124.107 Y91.000 E1.6748
G1 X133.107 Y91.000 E2.1148
G1 X133.607 Y91.500 E2.1494
G1 X143.107 Y91.500 E2.6139
G1 X147.500 Y95.893 E2.9177
G1 X147.500 Y106.607 E3.4415
G1 X143.107 Y111.000 E3.7452
G1 X96.893 Y111.000 E6.0047
G1 X92.500 Y106.607 E6.3085
G1 X92.500 Y93.393 E6.9545
G1 X93.100 Y93.642 F5400
G92 E0.0000
G1 X97.142 Y89.600 E0.2795 F720
G1 X112.858 Y89.600 E1.0479
G1 X113.858 Y90.600 E1.1170
G1 X122.858 Y90.600 E1.5571
G1 X123.858 Y91.600 E1.6262
G1 X132.858 Y91.600 E2.0662
G1 X133.358 Y92.100 E2.1008
G1 X142.858 Y92.100 E2.5653
G1 X146.900 Y96.142 E2.8448
G1 X146.900 Y106.358 E3.3442
G1 X142.858 Y110.400 E3.6237
G1 X97.142 Y110.400 E5.8589
G1 X93.100 Y106.358 E6.1384
G1 X93.100 Y93.642 E6.7601
G1 X93.700 Y93.890 F5400
G92 E0.0000
G1 X97.390 Y90.200 E0.2552 F720
G1 X112.610 Y90.200 E0.9993
G1 X113.610 Y91.200 E1.0684
G1 X122.610 Y91.200 E1.5084
G1 X123.610 Y92.200 E1.5776
G1 X132.610 Y92.200 E2.0176
G1 X133.110 Y92.700 E2.0522
G1 X142.610 Y92.700 E2.5167
G1 X146.300 Y96.390 E2.7718
G1 X146.300 Y106.110 E3.2470
G1 X142.610 Y109.800 E3.5022
G1 X97.390 Y109.800 E5.7131
G1 X93.700 Y106.110 E5.9683
G1 X93.700 Y93.890 E6.5657
G1 X94.300 Y94.139 F5400
G92 E0.0000
G1 X97.639 Y90.800 E0.2309 F720
G1 X112.361 Y90.800 E0.9507
G1 X113.361 Y91.800 E1.0198
G1 X122.361 Y91.800 E1.4598
G1 X123.361 Y92.800 E1.5290
G1 X132.361 Y92.800 E1.9690
G1 X132.861 Y93.300 E2.0036
G1 X142.361 Y93.300 E2.4681
G1 X145.700 Y96.639 E2.6989
G1 X145.700 Y105.861 E3.1498
G1 X142.361 Y109.200 E3.3807
G1 X97.639 Y109.200 E5.5673
G1 X94.300 Y105.861 E5.7981
G1 X94.300 Y94.139 E6.3713
G1 X94.900 Y94.388 F5400
G92 E0.0000
G1 X97.888 Y91.400 E0.2066 F720
G1 X112.112 Y91.400 E0.9021
G1 X113.112 Y92.400 E0.9712
G1 X122.112 Y92.400 E1.4112
G1 X123.112 Y93.400 E1.4804
G1 X132.113 Y93.400 E1.9204
G1 X132.612 Y93.900 E1.9550
G1 X142.112 Y93.900 E2.4195
G1 X145.100 Y96.888 E2.6260
G1 X145.100 Y105.612 E3.0526
G1 X142.112 Y108.600 E3.2592
G1 X97.888 Y108.600 E5.4215
G1 X94.900 Y105.612 E5.6280
G1 X94.900 Y94.388 E6.1768
G1 X95.500 Y94.636 F5400
G92 E0.0000
G1 X98.136 Y92.000 E0.1823 F720
G1 X111.864 Y92.000 E0.8535
G1 X112.864 Y93.000 E0.9226
G1 X121.864 Y93.000 E1.3626
G1 X122.864 Y94.000 E1.4318
G1 X131.864 Y94.000 E1.8718
G1 X132.364 Y94.500 E1.9064
G1 X141.864 Y94.500 E2.3709
G1 X144.500 Y97.136 E2.5531
G1 X144.500 Y105.364 E2.9554
G1 X141.864 Y108.000 E3.1377
G1 X98.136 Y108.000 E5.2756
G1 X95.500 Y105.364 E5.4579
G1 X95.500 Y94.636 E5.9824
G1 X96.100 Y94.885 F5400
G92 E0.0000
G1 X98.385 Y92.600 E0.1580 F720
G1 X111.615 Y92.600 E0.8049
G1 X112.615 Y93.600 E0.8740
G1 X121.615 Y93.600 E1.3140
G1 X122.615 Y94.600 E1.3832
G1 X131.615 Y94.600 E1.8232
G1 X132.115 Y95.100 E1.8578
G1 X141.615 Y95.100 E2.3223
G1 X143.900 Y97.385 E2.4802
G1 X143.900 Y105.115 E2.8582
G1 X141.615 Y107.400 E3.0162
G1 X98.385 Y107.400 E5.1298
G1 X96.100 Y105.115 E5.2878
G1 X96.100 Y94.885 E5.7880
G1 X96.700 Y95.133 F5400
G92 E0.0000
G1 X98.633 Y93.200 E0.1337 F720
G1 X111.367 Y93.200 E0.7562
G1 X112.367 Y94.200 E0.8254
G1 X121.367 Y94.200 E1.2654
G1 X122.367 Y95.200 E1.3346
G1 X131.367 Y95.200 E1.7746
G1 X131.867 Y95.700 E1.8092
G1 X141.367 Y95.700 E2.2737
G1 X143.300 Y97.633 E2.4073
G1 X143.300 Y104.867 E2.7610
G1 X141.367 Y106.800 E2.8947
G1 X98.633 Y106.800 E4.9840
G1 X96.700 Y104.867 E5.1177
G1 X96.700 Y95.133 E5.5936
G1 X97.300 Y95.382 F5400
G92 E0.0000
G1 X98.882 Y93.800 E0.1094 F720
G1 X111.118 Y93.800 E0.7076
G1 X112.118 Y94.800 E0.7768
G1 X121.118 Y94.800 E1.2168
G1 X122.118 Y95.800 E1.2860
G1 X131.118 Y95.800 E1.7260
G1 X131.618 Y96.300 E1.7606
G1 X141.118 Y96.300 E2.2250
G1 X142.700 Y97.882 E2.3344
G1 X142.700 Y104.618 E2.6638
G1 X141.118 Y106.200 E2.7731
G1 X98.882 Y106.200 E4.8382
G1 X97.300 Y104.618 E4.9476
G1 X97.300 Y95.382 E5.3992
G1 X97.900 Y95.630 F5400
G92 E0.0000
G1 X99.130 Y94.400 E0.0851 F720
G1 X110.870 Y94.400 E0.6590
G1 X111.870 Y95.400 E0.7282
G1 X120.870 Y95.400 E1.1682
G1 X121.870 Y96.400 E1.2374
G1 X130.870 Y96.400 E1.6774
G1 X131.370 Y96.900 E1.7120
G1 X140.870 Y96.900 E2.1764
G1 X142.100 Y98.130 E2.2615
G1 X142.100 Y104.370 E2.5666
G1 X140.870 Y105.600 E2.6516
G1 X99.130 Y105.600 E4.6924
G1 X97.900 Y104.370 E4.7774
G1 X97.900 Y95.630 E5.2047
G1 X98.500 Y95.879 F5400
G92 E0.0000
G1 X99.379 Y95.000 E0.0608 F720
G1 X110.621 Y95.000 E0.6104
G1 X111.500 Y95.879 E0.6712
G1 X111.500 Y96.000 E0.6771
G1 X120.621 Y96.000 E1.1231
G1 X121.500 Y96.879 E1.1838
G1 X121.500 Y97.000 E1.1898
G1 X130.621 Y97.000 E1.6357
G1 X131.121 Y97.500 E1.6703
G1 X140.621 Y97.500 E2.1348
G1 X141.500 Y98.379 E2.1955
G1 X141.500 Y104.121 E2.4763
G1 X140.621 Y105.000 E2.5371
G1 X99.379 Y105.000 E4.5535
G1 X98.500 Y104.121 E4.6143
G1 X98.500 Y95.879 E5.0173
G1 X99.100 Y96.127 F5400
G92 E0.0000
G1 X99.627 Y95.600 E0.0365 F720
G1 X110.373 Y95.600 E0.5618
G1 X110.900 Y96.127 E0.5983
G1 X110.900 Y96.600 E0.6214
G1 X120.373 Y96.600 E1.0845
G1 X120.900 Y97.127 E1.1210
G1 X120.900 Y97.600 E1.1441
G1 X130.373 Y97.600 E1.6073
G1 X130.873 Y98.100 E1.6418
G1 X140.373 Y98.100 E2.1063
G1 X140.900 Y98.627 E2.1428
G1 X140.900 Y103.873 E2.3992
G1 X140.373 Y104.400 E2.4357
G1 X99.627 Y104.400 E4.4278
G1 X99.100 Y103.873 E4.4643
G1 X99.100 Y96.127 E4.8430
G1 X99.700 Y96.376 F5400
G92 E0.0000
G1 X99.876 Y96.200 E0.0122 F720
G1 X110.124 Y96.200 E0.5132
G1 X110.300 Y96.376 E0.5254
G1 X110.300 Y97.200 E0.5657
G1 X120.124 Y97.200 E1.0460
G1 X120.300 Y97.376 E1.0582
G1 X120.300 Y98.200 E1.0985
G1 X130.124 Y98.200 E1.5788
G1 X130.300 Y98.376 E1.5909
G1 X130.300 Y98.700 E1.6068
G1 X140.124 Y98.700 E2.0871
G1 X140.300 Y98.876 E2.0993
G1 X140.300 Y103.624 E2.3314
G1 X140.124 Y103.800 E2.3436
G1 X99.876 Y103.800 E4.3114
G1 X99.700 Y103.624 E4.3236
G1 X99.700 Y96.376 E4.6780
; feature inner perimeter
G1 X100.300 Y96.800 F5400
G1 X100.300 Y96.941
G1 X102.700 Y99.200
G92 E0.0000
G1 X107.300 Y99.200 E0.2249 F630
G1 X107.300 Y100.200 E0.2738
G1 X117.300 Y100.200 E0.7627
G1 X117.300 Y100.800 E0.7921
G1 X102.700 Y100.800 E1.5059
G1 X102.700 Y99.300 E1.5792
G1 X102.700 Y99.200 F630
G1 X102.100 Y98.600 F5400
G92 E0.0000
G1 X107.900 Y98.600 E0.2836 F630
G1 X107.900 Y99.600 E0.3325
G1 X117.900 Y99.600 E0.8214
G1 X117.900 Y100.600 E0.8703
G1 X127.900 Y100.600 E1.3592
G1 X127.900 Y101.400 E1.3983
G1 X102.100 Y101.400 E2.6597
G1 X102.100 Y98.700 E2.7918
G1 X102.100 Y98.600 F630
G1 X101.500 Y98.000 F5400
G92 E0.0000
G1 X108.500 Y98.000 E0.3422 F630
G1 X108.500 Y99.000 E0.3911
G1 X118.500 Y99.000 E0.8801
G1 X118.500 Y100.000 E0.9290
G1 X128.500 Y100.000 E1.4179
G1 X128.500 Y100.500 E1.4423
G1 X138.500 Y100.500 E1.9312
G1 X138.500 Y102.000 E2.0046
G1 X101.500 Y102.000 E3.8136
G1 X101.500 Y98.100 E4.0043
G1 X101.500 Y98.000 F630
G1 X100.900 Y97.400 F5400
G92 E0.0000
G1 X109.100 Y97.400 E0.4009 F630
G1 X109.100 Y98.400 E0.4498
G1 X119.100 Y98.400 E0.9387
G1 X119.100 Y99.400 E0.9876
G1 X129.100 Y99.400 E1.4766
G1 X129.100 Y99.900 E1.5010
G1 X139.100 Y99.900 E1.9899
G1 X139.100 Y102.600 E2.1219
G1 X100.900 Y102.600 E3.9896
G1 X100.900 Y97.500 E4.2390
G1 X100.900 Y97.400 F630
; feature outer perimeter
G1 X100.300 Y96.800 F5400
G92 E0.0000
G1 X109.700 Y96.800 E0.4596 F540
G1 X109.700 Y97.800 E0.5085
G1 X119.700 Y97.800 E0.9974
G1 X119.700 Y98.800 E1.0463
G1 X129.700 Y98.800 E1.5352
G1 X129.700 Y99.300 E1.5597
G1 X139.700 Y99.300 E2.0486
G1 X139.700 Y103.200 E2.2393
G1 X100.300 Y103.200 E4.1656
G1 X100.300 Y96.900 E4.4737
G1 X100.300 Y96.800 F540
G1 X103.300 Y96.800 F540
; feature internal single extrusion
; tool H0.200 W0.800
G1 X103.360 Y100.000 F5400
G92 E0.0000
G1 X103.560 Y100.000 E0.0130 F540
G1 X103.640 Y100.000 E0.0183
G1 X103.720 Y100.000 E0.0235
G1 X103.800 Y100.000 E0.0287
G1 X103.880 Y100.000 E0.0339
G1 X103.960 Y100.000 E0.0391
G1 X104.040 Y100.000 E0.0443
G1 X104.120 Y100.000 E0.0495
G1 X104.200 Y100.000 E0.0548
G1 X104.280 Y100.000 E0.0600
G1 X104.360 Y100.000 E0.0652
G1 X104.440 Y100.000 E0.0704
G1 X104.520 Y100.000 E0.0756
G1 X104.600 Y100.000 E0.0808
G1 X104.680 Y100.000 E0.0861
G1 X104.760 Y100.000 E0.0913
G1 X104.840 Y100.000 E0.0965
G1 X104.920 Y100.000 E0.1017
G1 X105.000 Y100.000 E0.1069
G1 X105.080 Y100.000 E0.1121
G1 X105.160 Y100.000 E0.1173
G1 X105.240 Y100.000 E0.1226
G1 X105.320 Y100.000 E0.1278
G1 X105.400 Y100.000 E0.1330
G1 X105.480 Y100.000 E0.1382
G1 X105.560 Y100.000 E0.1434
G1 X105.640 Y100.000 E0.1486
G1 X105.720 Y100.000 E0.1538
G1 X105.800 Y100.000 E0.1591
G1 X105.880 Y100.000 E0.1643
G1 X105.960 Y100.000 E0.1695
G1 X106.040 Y100.000 E0.1747
G1 X106.120 Y100.000 E0.1799
G1 X106.200 Y100.000 E0.1851
G1 X106.280 Y100.000 E0.1904
G1 X106.360 Y100.000 E0.1956
G1 X106.540 Y100.000 E0.2073
G1 X106.640 Y100.000 F540
